assets/icons/qvision/mouse.svg

<svg xmlns="http://www.w3.org/2000/svg" height="24" viewBox="0 0 24 24" width="24"><path d="M0 0h24v24H0z" fill="none"/><path d="M13 1.07V9h7c0-4.08-3.05-7.44-7-7.93zM4 15c0 4.42 3.58 8 8 8s8-3.58 8-8v-4H4v4zm7-13.93C7.05 1.56 4 4.92 4 9h7V1.07z"/></svg>

<svg width="24" height="24" viewBox="0 0 24 24" fill="none" xmlns="http://www.w3.org/2000/svg">
<g clip-path="url(#clip0_147_3028)">
<path d="M13 1.07V9H20C20 4.92 16.95 1.56 13 1.07ZM4 15C4 19.42 7.58 23 12 23C16.42 23 20 19.42 20 15V11H4V15ZM11 1.07C7.05 1.56 4 4.92 4 9H11V1.07Z" fill="#323232"/>
</g>
<defs>
<clipPath id="clip0_147_3028">
<rect width="24" height="24" fill="white"/>
</clipPath>
</defs>
</svg>
